X: 1
T: All the Things You Are
M: C
L: 1/4
K: Ab
"Fm7"A4|"Bbm7"d3A|"Eb7"GGGG|"Abmaj7"Gc2G|
"Dbmaj7"FFFF|"G7"F=B2F|"Cmaj7"=E4-|E4|
"Cm7"_E4|"Fm7"A3E|"Bb7"=DDDD|"Ebmaj7"=DG2D|
"Abmaj7"CCCC|"Am7b5"C=D/E/"D7"DC|"Gmaj7"=B,4-|-B,D"E7#9"G=d||
"Am7"=d>cc4-|"D7"cE=Ec|"Gmaj7"=B4-|B=DG=B|
"F#m7b5"=B>=AA2-|"B7"AB,=B,=A|"Emaj7"^G4-|"C7#5"G4||
"Fm7"A4|"Bbm7"d3A|"Eb7"GGGG|"Abmaj7"Gc2G|
"Dbmaj7"F4|"Gb713"e3d|"Cm7"EE(3EEE|"Bdim7"G3F|
"Bbm7"DDFA|"Eb7"f2G2|"Abmaj7"A4|"(Gm7b5"z4"C7b9)"x2|]
